X: 16645
T: Hanley's Tweed
R: reel
M: 4/4
K: Adorian
A3e faeA|B2AB ~G3B|AE~E2 A2 (3Bcd|edef g2(3efg|
~a3a agef|g2fa gedg|ed (3cBA BGGG|1 BedB A2AG:|2 BedB A3d||
|:eaaf g2fg|eaag edBd|eaab g2fg|dB~B2 dABd|
ea~a2 bg~g2|agab g2ag|ed (3cBA BGGA|1 BedB A2Bd:|2 BedB A2AG||

